X:1
T:Title
%%score ( 1 2 ) { 3 | 4 }
L:1/8
Q:1/4=115
M:4/4
K:F
V:1 treble nm="Grand Piano, Soprano"
V:2 treble 
V:3 bass nm="Choir Pad, Sharjah, R. D. Mallary, 1897"
V:4 bass 
V:1
 F4 A2 F2 | [Gc]6 [GB]2 | [FA]2 F2 [FA]2 [EG]2 | [EG]2 F6 | A4 [EA]2 [EA]2 | [Dd]6 [Fc]2 | %6
w: By~Raymond~DeWitt~Mallary,~1897 * *||||||
 [Fd]2 [Fc]2 B-[EB] [FA]2 | [EG]8 | [FA]4 [GA]2 [GA]2 | [Af]6 [Af]2 | [Ff]2 [Ff]2 [Fe]2 [Fd]2 | %11
w: |||||
 [Ac]4 [FA]4 | F4 [FG]2 [FG]2 | [FA]2 [Gc]2 [FB]2 [FA]2 | [EA]6 [EG]2 | F8 | %16
w: |||||
 c2- [Gc]2 [Ac]2 [Af]2 | c2- [Gc-]2 [Ac]4 | c2- [Fc]2 [Ec]2 [Gc]2 | [Fc]2 [Gc]2 [Ac]2 [Ff]2 | %20
w: ||||
 [Ff]4 [Ae]2 d-[Gd] | .F2 B2 z4 | [DG]4 [FG]2 [FA]2 | E4- [Ec]4 | c2- [Gc]2 [Ac]2 [Af]2 | %25
w: |||||
 c2- [Gc-]2 [Ac]4 | c2- [Fc]2 [Ec]2 [Gc]2 | [Fc]2 [Gc]2 [Ac]2 [Ff]2 | [Ff]4 [Ae]2 d-[Gd] | %29
w: ||||
 .F2 B2 z4 | [EA]4 [EG]4 | F8 |] %32
w: |||
V:2
 x8 | x8 | x8 | x8 | x8 | x8 | z4 .D2 z2 | x8 | x8 | x8 | x8 | x8 | x8 | x8 | x8 | x8 | F2 z2 z4 | %17
 F2 z2 z4 | G2 z2 z4 | x8 | z4 z2 .F2 | c-[Cc]DE [FA]4 | x8 | G4 z4 | F2 z2 z4 | G2 z2 z4 | %26
 G2 z2 z4 | x8 | z4 z2 .F2 | c-[Cc]DE [FA]2 [GB]2 | x8 | x8 |] %32
V:3
 F,4 A,2 F,2 | C6 C2 | C2 C2 C2 B,2 | B,2[K:bass] A,6 | A,4 ^C2 C2 | A,6 F,2 | %6
 F,2 F,[K:treble]C B,2 C2 | C8 | C4 ^C2 C2 | D6 D2 | D2 D2 C2 DE | F4 C2[K:bass] A,2 | %12
 A,4 B,2 B,2 | C2[K:treble] E2 D2 C2 | C6 B,2 | A,8 | A,2 B,2 C2 C2 | A,2 B,2 C4 | %18
 B,2 A,2 G,2 B,2 | A,2 B,2[K:treble] C2 A,2 | D4 E2 B,2 | C2 G,C C4 | B,4 D2 D2 | C4[K:bass] B,4 | %24
 A,2 B,2 C2 C2 | A,2 B,2 C4 | B,2 A,2 G,2 B,2 | A,2 B,2[K:treble] C2 A,2 | D4 E2 B,2 | %29
 C2 G,C C2 D2 | C4 B,4 | A,8 |] %32
V:4
 z8 | E,6 E,2 | F,2 A,2 z2 C,2 | F,2 F,6 | z4 G,2 G,2 | F,6 A,,2 | B,,2 A,,2 G,,2 F,,2 | C,8 | %8
 F,4 E,2 E,2 | D,6 D,2 | B,2 B,2 B,2 B,2 | F,4 F,4 | D,4 ^C,2 C,2 | C,2 C,2 C,2 C,2 | C,6 C,2 | %15
 F,8 | F,4 F,2 F,2 | F,8 | C,4 C,2 C,2 | F,2 F,2 F,2 F,2 | z4 C2 z2 | A,2 z2 F,4 | %22
 B,,4 =B,,2 B,,2 | C,8 | F,4 F,2 F,2 | F,8 | C,4 C,2 C,2 | F,2 F,2 F,2 F,2 | z4 C2 z2 | %29
 A,2 z2 F,2 B,,2 | C,4 C,4 | F,8 |] %32

